X:111
T: Ga laohan
N: C0139
O: China, Qinghai, Osten
S: I, 259]
N: Variante zu Nr. 195, aber sehr schwer zu erkennen, da Tonart und
N: Rhythmus verschieden. Mehr Aehnlichkeit zu I, 125.
N: Wer dieses Spiel verloren hat, muss einen Schnaps trinken
N: oder ein Lied  singen. +++ Doublette +++
N: Wird normalerweise von einer kleinen volkstuemlichen Pipa begleitet.
N: Saengerin: Huang Bai = VARIANTE!!
R: Xiaodiao, Jiuling, Xiuhebao diao. Yinjiu shi chang]
M: 4/4
L: 1/8
K: F
dfdcA2Ac | d4d2
cd | ff2cd2cA | G4G4
cAAcd2fd | cdcAG2
FG | cccGAGFE | D4D4
cAAcd2fd | cdcAG2
FG | cccGAGFE | D4D4

